ОкеанВКонцеДороги/svg/ch1/balloon5-1.svg

<svg xmlns="http://www.w3.org/2000/svg" width="280" height="851" fill="none" viewBox="0 0 280 851"><g fill="#e3edff" opacity=".51"><path d="M110.552 223.8c-3.743 6.573-6.191 21.025-.08 42.512 6.092 21.42 20.654 49.663 50.602 83.617 38.052 43.143 40.234 86.852 29.862 119.545-4.203 13.248-10.466 24.688-17.231 33.55 5.22 2.375 10.808 5.863 16.673 10.725 11.193 9.278 14.461 23.724 13.538 40.42-.924 16.716-6.069 36.126-12.225 55.87-6.189 19.851-13.367 39.943-18.559 58.438-5.196 18.504-8.257 34.947-6.366 47.332 7.771 50.876 32.479 94.308 67.101 115.228l-2.028 3.149c-35.859-21.667-60.966-66.25-68.84-117.805-2.02-13.223 1.26-30.336 6.459-48.853 5.202-18.527 12.474-38.92 18.59-58.537 6.15-19.723 11.168-38.761 12.065-54.991.899-16.249-2.353-29.247-12.219-37.426-5.955-4.937-11.51-8.331-16.584-10.544a84 84 0 0 1-2.354 2.714c-4.254 4.695-8.598 8.386-12.676 10.851-4.033 2.436-8.024 3.804-11.498 3.492-3.148-.283-5.677-1.215-7.482-2.72-1.831-1.526-2.798-3.545-2.943-5.72-.286-4.266 2.549-8.798 7.237-11.848 6.369-4.143 16.301-5.789 28.514-1.261 6.704-8.606 12.999-19.92 17.19-33.13 10.011-31.558 8.03-73.933-29.123-116.056-30.216-34.257-45.101-62.968-51.375-85.028-6.255-21.994-3.989-37.55.424-45.298zm57.065 280.791c-10.737-3.662-19.002-1.92-23.922 1.281-3.961 2.577-5.707 5.983-5.538 8.506.081 1.219.6 2.308 1.635 3.17 1.059.883 2.774 1.619 5.37 1.852 2.271.204 5.396-.692 9.126-2.945 3.682-2.226 7.746-5.651 11.819-10.146a79 79 0 0 0 1.51-1.718"/><path d="m94.126 223.292-8.571 13.99c7.345-.541 22.109-.589 22.398 3.546s10.772-2.525 15.977-6.372l-17.266-12.087c26.914-13.857 71.993-46.492 64.778-149.861-4.436-63.552-129.657-90.274-146.366 4.098-18.27 103.19 46.156 137.858 69.05 146.686"/></g></svg>

<svg width="280" height="851" viewBox="0 0 280 851" fill="none" xmlns="http://www.w3.org/2000/svg">
<g opacity="0.51">
<path d="M110.552 223.8C106.809 230.373 104.361 244.825 110.472 266.312C116.564 287.732 131.126 315.975 161.074 349.929C199.126 393.072 201.308 436.781 190.936 469.474C186.733 482.722 180.47 494.162 173.705 503.024C178.925 505.399 184.513 508.887 190.378 513.749C201.571 523.027 204.839 537.473 203.916 554.169C202.992 570.885 197.847 590.295 191.691 610.039C185.502 629.89 178.324 649.982 173.132 668.477C167.936 686.981 164.875 703.424 166.766 715.809C174.537 766.685 199.245 810.117 233.867 831.037L231.839 834.186C195.98 812.519 170.873 767.936 162.999 716.381C160.979 703.158 164.259 686.045 169.458 667.528C174.66 649.001 181.932 628.608 188.048 608.991C194.198 589.268 199.216 570.23 200.113 554C201.012 537.751 197.76 524.753 187.894 516.574C181.939 511.637 176.384 508.243 171.31 506.03C170.529 506.97 169.743 507.875 168.956 508.744C164.702 513.439 160.358 517.13 156.28 519.595C152.247 522.031 148.256 523.399 144.782 523.087C141.634 522.804 139.105 521.872 137.3 520.367C135.469 518.841 134.502 516.822 134.357 514.647C134.071 510.381 136.906 505.849 141.594 502.799C147.963 498.656 157.895 497.01 170.108 501.538C176.812 492.932 183.107 481.618 187.298 468.408C197.309 436.85 195.328 394.475 158.175 352.352C127.959 318.095 113.074 289.384 106.8 267.324C100.545 245.33 102.811 229.774 107.224 222.026L110.552 223.8ZM167.617 504.591C156.88 500.929 148.615 502.671 143.695 505.872C139.734 508.449 137.988 511.855 138.157 514.378C138.238 515.597 138.757 516.686 139.792 517.548C140.851 518.431 142.566 519.167 145.162 519.4C147.433 519.604 150.558 518.708 154.288 516.455C157.97 514.229 162.034 510.804 166.107 506.309C166.611 505.752 167.115 505.179 167.617 504.591Z" fill="#E3EDFF"/>
<path d="M94.1259 223.292L85.5548 237.282C92.9005 236.741 107.664 236.693 107.953 240.828C108.242 244.963 118.725 238.303 123.93 234.456L106.664 222.369C133.578 208.512 178.657 175.877 171.442 72.5076C167.006 8.95626 41.7848 -17.7657 25.0758 76.6057C6.80546 179.796 71.2318 214.464 94.1259 223.292Z" fill="#E3EDFF"/>
</g>
</svg>
